X:1
T:Title
%%score { ( 1 3 ) | ( 2 4 ) }
L:1/8
M:2/4
K:C
V:1 treble nm="Grand Piano"
V:3 treble 
V:2 bass 
V:4 bass 
V:1
 z4 | z2 z[Q:1/4=85] [CE] | [EG]>[DF] [CE][Ec] | c>A FA | [EG]>[EG] [EG][G,CE] | %5
 [G,B,D]2 z G/-[FG]/ | [CEG]>[G,DF] [G,CE][Ec] | [Fc]>[Ac] [Ec]A | G>E F[B,G] |[M:3/8] [CE]2 z |] %10
V:2
 z4 | z2 z [C,G,] | [C,C]>[C,G,] [C,G,][C,G,] | [F,A,F]>[F,CF] [F,A,C][F,CF] | %4
 [C,C]>[C,C] [C,C]C, | G,,2 z z/ D/ | C,>C, C,[C,G,] | [C,A,]>[C,C] [C,G,][F,A,F] | %8
 [G,CE]>[G,C] [G,D][G,,G,] |[M:3/8] [C,G,]2 z |] %10
V:3
 x4 | x4 | x4 | x4 | x4 | z2 z .[B,D] | x4 | x4 | x4 |[M:3/8] x3 |] %10
V:4
 x4 | x4 | x4 | x4 | x4 | z2 z G,, | x4 | x4 | x4 |[M:3/8] x3 |] %10

